X: 21416
T: Kesh, The
R: jig
M: 6/8
K: Gmajor
|:D|G3 GAB|A2A ABd|edd gdd|edB dBA|
G3 GAB|A2A ABd|edd gdB|AGF G2:|
|:A|BAB dBd|ege dBG|BAB dBG|ABA AGA|
BGB dBd|ege dBd|gfg aga|bgf g2:|

